X: 1
T: Arthur Darley's
R: jig
M: 6/8
L: 1/8
K: Amix
|: A3 AGF | EDC D3 d2e | fgf edc | d3 d2e |
fgf edc | dAA BAG | FED EDC | DFE CDE |
Ddd Aee | Aff Agg | fed edc | d2d dcB :|
|: A=ff fef | A=ff fef | A=ff Agg | Aaa A_bb |
A=ff fef | A=ff f2g | =fed ed^c | d2d d2e :|
|: fgf edc | dAA BAD | FED EDC | DEF CDE |
Ddd Aee | Aff Agg | fed edc | d2d d3 :|


Tune 417	Setting 28832

